Sources/FrostedUI/Resources/Icons.xcassets/shieldCheckmark32.imageset/shield-checkmark-32.svg

<svg width="32" height="32" viewBox="0 0 32 32" fill="none" xmlns="http://www.w3.org/2000/svg" data-fui-icon="true">
  <path
    d="M16.3564 29.2037C16.1342 29.3236 15.8658 29.3236 15.6436 29.2037L16 28.5445L16.3564 29.2037ZM14.9199 3.23691C15.6212 3.00324 16.3788 3.00324 17.0801 3.23691L25.4141 6.01425C26.8089 6.47937 27.75 7.78495 27.75 9.25546V15.8834C27.7499 19.4492 26.2124 22.081 24.0166 24.1646C21.8489 26.2215 19.0073 27.7736 16.3564 29.2037L16 28.5435L15.6436 29.2037C12.9927 27.7736 10.1511 26.2215 7.9834 24.1646C5.78755 22.081 4.25005 19.4492 4.25 15.8834V9.25546C4.25005 7.78498 5.19098 6.47939 6.58594 6.01425L14.9199 3.23691ZM16.6064 4.65976C16.2129 4.5286 15.7871 4.5286 15.3936 4.65976L7.06055 7.4371C6.27796 7.69799 5.75005 8.43053 5.75 9.25546V15.8834C5.75005 18.9471 7.04606 21.207 9.0166 23.0768C10.9267 24.8891 13.44 26.3051 16 27.69C18.56 26.3051 21.0733 24.8891 22.9834 23.0768C24.9539 21.207 26.2499 18.9471 26.25 15.8834V9.25546C26.25 8.43055 25.722 7.69799 24.9395 7.4371L16.6064 4.65976ZM19.1367 12.1363C19.4296 11.8437 19.9045 11.8435 20.1973 12.1363C20.49 12.4291 20.4898 12.904 20.1973 13.1969L15.1973 18.1969C14.9044 18.4896 14.4296 18.4896 14.1367 18.1969L11.8027 15.8639C11.5101 15.5711 11.5102 15.0962 11.8027 14.8033C12.0956 14.5105 12.5704 14.5105 12.8633 14.8033L14.666 16.606L19.1367 12.1363Z"
    fill="currentColor"
  />
</svg>

<svg xmlns="http://www.w3.org/2000/svg" width="32" height="32" fill="none" data-fui-icon="true" viewBox="0 0 32 32"><path fill="currentColor" d="M16.356 29.204a.75.75 0 0 1-.712 0l.356-.66zM14.92 3.237a3.4 3.4 0 0 1 2.16 0l8.334 2.777a3.42 3.42 0 0 1 2.336 3.241v6.628c0 3.566-1.538 6.198-3.733 8.282-2.168 2.057-5.01 3.609-7.66 5.039l-.357-.66-.356.66c-2.651-1.43-5.493-2.983-7.66-5.04-2.196-2.083-3.734-4.715-3.734-8.28V9.254c0-1.47.941-2.776 2.336-3.24zm1.686 1.423a1.9 1.9 0 0 0-1.212 0L7.06 7.437c-.783.261-1.311.994-1.311 1.818v6.628c0 3.064 1.296 5.324 3.267 7.194 1.91 1.812 4.423 3.228 6.983 4.613 2.56-1.385 5.073-2.8 6.983-4.613 1.97-1.87 3.267-4.13 3.267-7.194V9.255c0-.824-.528-1.557-1.31-1.818zm2.53 7.476a.75.75 0 0 1 1.061 1.06l-5 5a.75.75 0 0 1-1.06 0l-2.334-2.332a.75.75 0 0 1 1.06-1.06l1.803 1.802z"/></svg>
